!!!!SEGMENT: pl-sa--400-a-viii-40--003-003_pugnani-gaetano--trio-in-g-allegro.krn
!!!cenid: 17xx:2028
!!!COM: Pugnani, Gaetano
!!!COM-rismid: pe30002608
!!!CDT: 1731/11/27-1798/07/15
!!!CNT: Italian
!!!OPR: Trio in G
!!!OTL: Allegro
!!!OMV: 003
!!!PDT:
!!!AGN: Secular
!!!SMS-siglum: PL-SA
!!!SMS-shelfmark: 400/A VIII 40
!!!SMS-shelfwork: 003-003 M
!!!SMS-variant:
!!!SMS-altvar:
!!!NIFC-rismid: 1001104661
!!!URL-scan: http://bc.bdsandomierz.pl/dlibra/publication/1703/edition/1671/content
!!!ONB-nifc: UWAGA: No 3tio. Części: 1. Allegro, 2. Adagio, 3. Allegro
!!!key:
**kern	**kern	**kern
*part3	*part2	*part1
*staff3	*staff2	*staff1
*Iempty	*Ivioln	*Ivioln
*I"Baſso	*I"Violino 2do	*I"Violino 1mo
*I'b	*I'vl 2	*I'vl 1
*clefF4	*clefG2	*clefG2
*k[f#]	*k[f#]	*k[f#]
*G:	*G:	*G:
*M3/8	*M3/8	*M3/8
=1	=1	=1
!	!LO:TX:t=P:znaki:problem= jeszcze f#	!
!	!LO:TX:B:a:t=Allo	!LO:TX:B:a:t=Allegro
4.ryy	8r	4g/
.	8b\L	.
.	8g\J	16.b/LL
.	.	32g/JJk
=2	=2	=2
4.ryy	8r	4dd\
.	8f#/L	.
.	8d/J	16.ff#\LL
.	.	32dd\JJk
=3	=3	=3
!	!	!LO:TX:t=P:problem=mixed beam
4.ryy	8r	8gg\L
.	8b\L	8g/
.	8g\J	8g/J
=4	=4	=4
4.ryy	(16f#/LL	16a\LL
.	16a/	16cc\J
.	16g/)	8b\J
.	16d'/	.
!	!	!LO:N:vis=8
.	16g'/	16r
.	16b'/JJ	16dd\
=5	=5	=5
4.ryy	(16a\LL	16f#/LL
.	16cc\	16a/J
.	16b\)	8g/J
.	16dd'\	.
.	16b'\	16r
.	16g'\JJ	16b\
=6	=6	=6
4.ryy	(16f#/LL	16a\LL
.	16a/	16cc\J
.	16g/)	8b\J
.	16d'/	.
.	16g'/	16r
.	16b'/JJ	16dd\
=7	=7	=7
!	!LO:TX:t=P:problem=brak taktu	!
4.ryy	4.ryy	16f#/LL
.	.	16a/J
.	.	8g/J
!	!	!LO:N:vis=8
.	.	16r
!	!	!LO:N:vis=8
.	.	16r
=8	=8	=8
*	*	*Xtuplet
!	!	!LO:TUP:a:problem=klamra łukowa
4.ryy	8c/L	24ee\LL
.	.	24ff#\
.	.	24ee\JJ
.	8c/	4gg\
.	8c/J	.
=9	=9	=9
4.ryy	8B/L	24dd\LL
.	.	24ee\
.	.	24dd\JJ
.	8B/	4gg\
.	8B/J	.
=10	=10	=10
4.ryy	4c/	16ee\LL
.	.	16dd\
.	.	16cc\
.	.	16b\
.	8c#X/	16a\
.	.	16g\JJ
=11	=11	=11
4.ryy	4d/	24f#/LL
.	.	24g/
.	.	24a/JJ
.	.	16.d/LL
.	.	32c/K
.	8r	16.B/
.	.	32A/JJk
!	!	!LO:LB:g=original
=12	=12	=12
!	!	!LO:TX:t=P:problem=mixed beam
4.ryy	4g/	8G/L
.	.	8b\
.	16.b/LL	8g\J
.	32g/JJk	.
=13	=13	=13
4.ryy	4dd\	8r
.	.	8f#/L
.	(16.ff#\LL	8d/J
.	32dd\JJk)	.
!	!LO:LB:g=original	!
=14	=14	=14
!	!LO:TX:t=P:problem=mixed beam	!
4.ryy	8gg\L	8r
.	8g/	8b\L
.	8g/J	8g\J
=15	=15	=15
4.ryy	16a\LL	(16f#/LL
.	16cc\J	16a/
.	8b\J	16g/)
.	.	16d'/
.	16r	16g'/
.	16dd\	16b'/JJ
=16	=16	=16
4.ryy	16f#/LL	(16a\LL
.	16a/J	16cc\
.	8g/J	16b\)
.	.	16dd'\
.	16r	16b'\
.	16b\	16g'\JJ
=17	=17	=17
!	!	!LO:SIC:v:s=(16f#/LL
4.ryy	16a\LL	(16g/LL
.	16cc\J	16a/
.	8b\J	16g/)
.	.	16d/
.	16r	16g'/
.	16dd\	16b'/JJ
=18	=18	=18
4.ryy	16f#/LL	(16a\LL
.	16a/J	16cc\
.	8g/J	16b\)
.	.	16dd'\
.	8r	16b'\
.	.	16g'\JJ
=19	=19	=19
*	*Xtuplet	*
4.ryy	24ee\LL	8c/L
.	24ff#\	.
.	24ee\JJ	.
.	4gg\	8c/
.	.	8c/J
=20	=20	=20
4.ryy	24dd\LL	8B/L
.	24ee\	.
.	24dd\JJ	.
.	4gg\	8B/
.	.	8B/J
=21	=21	=21
4.ryy	16ee\LL	4c/
.	16dd\	.
.	16cc\	.
.	16b\	.
.	16a\	8c#X/
.	16g\JJ	.
=22	=22	=22
.	8qqg/	.
!	!	!LO:TX:t=P:problem=mixed beam
4.ryy	4f#/	8d/L
.	.	8dd\
.	8d/	8dd\J
=23	=23	=23
.	.	8qee/
4.ryy	4a/	16dd\LL
.	.	16cc#X\JJ
.	.	8ee\L
.	8g/	8ee\J
=24	=24	=24
!	!LO:TX:t=P:problem=mixed beam	!
4.ryy	8f#/L	8dd\L
.	8dd\	8ff#\
.	8dd\J	8ff#\J
!	!	!LO:LB:g=original
=25	=25	=25
.	8qqee/	8qgg/
4.ryy	16dd\LL	16ff#\LL
.	16cc#X\JJ	16ee\JJ
.	8ee\L	8gg\L
.	8ee\J	8gg\J
!	!LO:LB:g=original	!
=26	=26	=26
!	!	!LO:N:vis=4.
4.ryy	(16dd/LL	4ff#\
.	16cc#X/	.
.	16dd/)	.
.	16a'/	.
.	16f#'/	16aa\LL
.	16d'/JJ	16ddd\JJ
=27	=27	=27
!	!LO:TX:t=P:problem=mixed beam	!
4.ryy	16g/LL	8bb\L
.	(16gg\	.
.	16ff#\)	8aa\
.	16a'\	.
.	16ee'\	8gg\J
.	16a'\JJ	.
=28	=28	=28
4.ryy	(16dd/LL	4ff#\
!	!LO:SIC:v:s=16cc#/	!
.	16cc/	.
.	16dd/)	.
.	(16a/	.
.	16f#/)	16aa\LL
.	16d'/JJ	16ddd\JJ
=29	=29	=29
!	!LO:TX:t=P:problem=mixed beam	!
4.ryy	16g/LL	8bb\L
.	(16gg\	.
.	16ff#\)	8aa\
.	16a'\	.
.	16ee'\	8gg\J
.	16a'\JJ	.
=30	=30	=30
4.ryy	8d/L	(16ff#\LL
.	.	16dd\)
.	8e/	(16gg\
.	.	16ee\)
.	8f#/J	(16aa\
.	.	16ff#\JJ)
=31	=31	=31
4.ryy	8g/L	24bb\LL
.	.	24aa\
.	.	24gg\JJ
.	8a/	8ff#\L
.	8A/J	8ee\J
=32	=32	=32
4.ryy	(16dd/LL	4dd\
.	16cc#X/	.
.	16dd/)	.
.	16a'/	.
.	16f#'/	16aa\LL
.	16d'/JJ	16ddd\JJ
=33	=33	=33
!	!LO:TX:t=P:problem=mixed beam	!
4.ryy	16g/LL	8bb\L
.	(16gg\	.
.	16ff#\)	8aa\
.	16a'\	.
.	16ee'\	8gg\J
.	16a'\JJ	.
=34	=34	=34
4.ryy	(16dd/LL	4ff#\
.	16cc#X/	.
.	16dd/)	.
.	16a'/	.
.	16f#'/	16aa\LL
.	16d/JJ	16ddd\JJ
=35	=35	=35
!	!LO:TX:t=P:problem=mixed beam	!
4.ryy	(16g/LL	8bb\L
.	16gg\	.
.	16ff#\)	8aa\
.	16a'\	.
.	16ee'\	8gg\J
.	16a'\JJ	.
!	!LO:PB:g=original	!
=36	=36	=36
4.ryy	8d/L	16ff#\LL
.	.	16dd\
.	8e/	16gg\
.	.	16ee\
.	8f#/J	16aa\
.	.	16ff#\JJ
=37	=37	=37
4.ryy	8g/L	24bb\LL
.	.	24aa\
.	.	24gg\JJ
.	8a/	8ff#\L
.	8A/J	8ee\J
=38	=38	=38
.	.	8qqee/
4.ryy	4d/	4dd\
.	8r	8r
!!LO:TX:t=P:problem:fermata na kresce taktowej:global
=39:|!|:	=39:|!|:	=39:|!|:
!	!LO:TX:t=P:problem=mixed beam	!
4.ryy	(16d/LL	4.aa\
.	16dd\	.
.	16ff#\)	.
.	16aa'\	.
.	16ff#'\	.
.	16dd'\JJ	.
!	!	!LO:LB:g=original
=40	=40	=40
!	!LO:TX:t=P:problem=mixed beam	!
4.ryy	(16d/LL	4.bb\
.	16dd\	.
.	16gg\)	.
.	16bb'\	.
.	16gg'\	.
.	16dd'\JJ	.
=41	=41	=41
!	!LO:TX:a:t=P:problem=mixed beam	!
4.ryy	8d|/L	8aa\L
.	(8bb\	8ddd\
.	8aa\J)	8ccc#X\J
=42	=42	=42
!	!LO:TX:a:t=P:problem=mixed beam	!
4.ryy	8d|/L	8r
.	(8aa\	8cccn\L
.	8gg\J)	8bb\J
=43	=43	=43
!	!LO:TX:a:t=P:problem=mixed beam	!
4.ryy	8d|/L	8aa\L
.	(8bb\	16ccc\L
.	.	16ddd\JJ
.	8aa\J)	8cccn\
=44	=44	=44
!	!LO:TX:a:t=P:problem=mixed beam	!
4.ryy	8d|/L	8r
.	(8aa\	8ccc\L
.	8gg\J)	8bb\J
=45	=45	=45
!	!LO:TX:t=P:problem=mixed beam	!
.	.	8qqbb/
*	*	*^
4.ryy	8ff#\L	4.aa/	4.dd\
.	16d/L	.	.
.	16c/	.	.
.	16B/	.	.
.	16A/JJ	.	.
*	*	*v	*v
=46	=46	=46
4.ryy	4G/	8dd\L
.	.	8ee\
.	8r	8ffn\J
=47	=47	=47
.	.	8qqgg/
!	!	!LO:SIC:v:s=8ffn\L
4.ryy	4.r	8ff#\L
.	.	8ee\
.	.	8dd\J
=48	=48	=48
.	.	8qqgg/
*	*	*^
4.ryy	(8b\L	8dd/L	4.g\
.	8cc\	8ee/	.
!	!	!LO:SIC:v:s=8ffn/J	!
.	8dd\J)	8ff#/J	.
=49	=49	=49	=49
!	!	!LO:SIC:v:s=8ffn/L	!
4.ryy	8dd\L	8ff#/L	4.g\
.	8cc\	8ee/	.
.	8b\J	8dd/J	.
*	*	*v	*v
=50	=50	=50
4.ryy	4c/	8gg\L
.	.	8aa\
.	8r	8bb-X\J
!	!LO:LB:g=original	!
=51	=51	=51
!	!	!LO:SIC:v:s=(8bb-\L
4.ryy	4.r	(8bb\L
.	.	8aa\
.	.	8gg\J)
=52	=52	=52
*	*	*^
!	!	!	!LO:N:vis=4
4.ryy	8ee\L	8gg\L	4.cc\
.	8ffn\	8aa\	.
.	8gg\J	8bb-X\J	.
=53	=53	=53	=53
!	!	!LO:SIC:v:s=8bb-\L	!LO:N:vis=4
4.ryy	8gg\L	8bb\L	4.cc\
!	!LO:SIC:v:s=8ffn\	!	!
.	8ff#\	8aa\	.
.	8ee\J	8gg\J	.
=54	=54	=54	=54
!	!LO:SIC:v:s=8ffn\L	!	!
!	!LO:TX:t=P:problem=mixed beam	!	!
4.ryy	8ff#\L	4.aa/	4.ffn\
!	!LO:SIC:v:s=16fn/L	!	!
.	16f#/L	.	.
.	16g/	.	.
.	16a/	.	.
.	16b/JJ	.	.
=55	=55	=55	=55
!	!LO:TX:t=P:problem=mixed beam	!	!
4.ryy	8cc\L	4.gg/	4.ee\
.	16c/L	.	.
.	16d/	.	.
.	16e/	.	.
.	16c/JJ	.	.
!	!	!LO:LB:g=original	!
=56	=56	=56	=56
4.ryy	8d/L	4.ffn/	4.dd\
.	16d/L	.	.
.	16e/	.	.
!	!LO:SIC:v:s=16fn	!	!
.	16f#/	.	.
.	16g/JJ	.	.
=57	=57	=57	=57
4.ryy	8a\L	8ee/L	4.cc#X\
.	16ffn\L	8aa/	.
.	16a\	.	.
.	16ee\	8gg/J	.
.	16a\JJ	.	.
*	*	*v	*v
=58	=58	=58
.	.	8qqgg/
!	!	!LO:SIC:v:s=4.ffnM\
4.ryy	(16dd/LL	4.ff#M\
.	16cc#X/	.
.	16dd/)	.
.	16a'/	.
.	16fn'/	.
.	16d'/JJ	.
=59	=59	=59
4.ryy	8a\L	8ee\L
!	!LO:SIC:v:s=16fn/L	!
.	(16ff#\L	8aa\
.	16a\)	.
.	(16ee\	8gg\J
.	16a\JJ)	.
=60	=60	=60
.	.	8qqgg/
4.ryy	(16dd/LL	4.ffn\
!	!LO:SIC:v:s=16cc#/	!
.	16cc/	.
.	16dd/)	.
.	16a'/	.
!	!LO:SIC:v:s=16fn'/	!
.	16f#'/	.
.	16d'/JJ	.
=61	=61	=61
4.ryy	8a\L	8dd\L
.	(16ee\L	8gg\
.	16g\)	.
.	(16dd\	8ffn\J
.	16g\JJ)	.
=62	=62	=62
.	.	8qqff#/
!	!	!LO:SIC:v:s=8qffnM\
4.ryy	(16cc/LL	4.eeM\
.	16b/	.
.	16cc/	.
.	16g/)	.
.	16e'/	.
.	16c'/JJ	.
!	!LO:LB:g=original	!
=63	=63	=63
4.ryy	8g\L	8dd\L
.	(16ee\L	8gg\
.	16g\)	.
!	!	!LO:SIC:v:s=8ffn\J
.	(16dd\	8ff#\J
.	16g\JJ)	.
=64	=64	=64
4.ryy	(16cc/LL	4.ee\
.	16b/	.
.	16cc/	.
.	16g/)	.
.	16e'/	.
.	16c'/JJ	.
=65	=65	=65
.	.	8qqee/
4.ryy	16g/LL	4dd\
.	16a/	.
.	16g/	.
.	16fn/	.
.	16e/	8r
.	16d/JJ	.
=66	=66	=66
4.ryy	8c/L	4cc\
.	8e/	.
.	8c/J	(16.ee\LL
.	.	32cc\JJk)
=67	=67	=67
4.ryy	8r	4gg\
.	8b\L	.
.	8g\J	(16bb\LL
!	!	!LO:SIC:v:s=16gg\JJ
.	.	16aa\JJ)
=68	=68	=68
4.ryy	8a/L	8ccc\L
.	8f#X/	8ccc\
.	8d/J	8ccc\J
=69	=69	=69
4.ryy	4g/	(8ccc\L
.	.	8bb\
.	(16.b/LL	8aa\J)
.	32g/JJk)	.
=70	=70	=70
4.ryy	4dd\	8r
.	.	8ff#X\L
.	(16.ff#X\LL	8dd\J
.	32dd\JJk)	.
=71	=71	=71
4.ryy	8gg\L	8ee\L
.	8gg\	8cc#X\
.	8gg\J	8a\J
=72	=72	=72
4.ryy	(8gg\L	4.dd\
.	8ff#\	.
.	8ee\J)	.
!	!	!LO:LB:g=original
=73	=73	=73
!	!LO:N:vis=8	!
4.ryy	8.ee\L	8dd\L
.	.	8a\
.	(16gg\L	.
.	16ee\	8cc\J
.	16cc\JJ)	.
=74	=74	=74
4.ryy	8.dd\L	8cc\L
.	.	16b\L
.	(16cc\L	16a\JJ
.	16dd\	8b\
.	16b\JJ)	.
=75	=75	=75
4.ryy	8.cc\L	8b/L
.	.	8d/
.	(16ee\L	.
.	16cc\	8a/J
.	16a\JJ)	.
=76	=76	=76
4.ryy	8.b\L	8a/L
.	.	8qqa/
.	.	16g'/L
.	(16a\L	16f#X'/J
.	16b\	8g/J
.	16g\JJ)	.
!	!LO:LB:g=original	!
=77	=77	=77
4.ryy	8c/L	16g/LL
.	.	16a/JJ
.	.	8qqg/
.	8d/	4f#/
.	8d/J	.
=78	=78	=78
4.ryy	16g/LL	4g\
.	16f#/	.
.	16g/	.
.	16d/	.
.	16B/	16dd\LL
.	16G/JJ	16gg\JJ
=79	=79	=79
4.ryy	(16c/LL	8ee\L
.	16cc/	.
.	16b/)	8dd\
.	(16d/	.
.	16a/	8cc\J
.	16d/JJ)	.
=80	=80	=80
.	.	8qqcc/
4.ryy	(16g/LL	4b\
.	16f#/	.
.	16g/	.
.	16d/)	.
.	16B/	(16dd\LL
.	16G/JJ	16gg\JJ)
=81	=81	=81
4.ryy	16c/LL	(8ee\L
.	16cc/	.
.	(16b/	8dd\
.	16d/)	.
.	(16a/	8cc\J)
.	16d/JJ)	.
=82	=82	=82
4.ryy	8G/L	(16b\LL
.	.	16g\)
.	8A/	(16cc\
.	.	16a\)
.	8B/J	(16dd\
.	.	16b\JJ)
!	!LO:LB:g=original	!
=83	=83	=83
4.ryy	8c/L	24ee\LL
.	.	24dd\
.	.	24cc\JJ
.	8d/	8b\L
.	8d/J	8a\J
=84	=84	=84
4.ryy	16g/LL	4g\)
.	(16f#/	.
.	16g/	.
.	16d/	.
.	16B/)	(16dd\LL
.	16G/JJ	16gg\JJ)
=85	=85	=85
4.ryy	16c/LL	8ee\L
.	16cc/	.
.	16b/	8dd\
.	16d/JJ	.
.	16a/LL	8cc\J
.	16d/JJ	.
=86	=86	=86
.	.	8qcc/
4.ryy	16g/LL	4b\
.	16f#/	.
.	16g/	.
.	16d/	.
.	16B/	16dd\LL
.	16G/JJ	16gg\JJ
=87	=87	=87
4.ryy	16c/LL	8ee\L
.	16cc/	.
.	16b/	8dd\
.	16d/	.
.	16a/	8cc\J
.	16d/JJ	.
!	!LO:LB:g=original	!
=88	=88	=88
4.ryy	8G/L	(16b\LL
.	.	16g\)
.	8A/	(16cc\
.	.	16a\)
.	8B/J	(16dd\
.	.	16b\JJ)
=89	=89	=89
4.ryy	8c/L	24ee\LL
.	.	24dd\
.	.	24cc\JJ
.	8d/	16b/LL
.	.	16d/J
.	8d/J	8a/J
=90	=90	=90
4.ryy	4G/	8g/L
.	.	8G/J
.	8r	8r
!!LO:TX:t=P:problem:fermata na kresce taktowej
=:|!	=:|!	=:|!
*-	*-	*-
!!!system-decoration: [(s1,s2,s3)]
!!!RDF**kern: | = vertical stroke
!!!AIN: 1 empty 2 violn
!!!ENC: Katarzyna Serwa
!!!END: 2021-10-28
!!!ENC: Krzysztof Stępień
!!!END: 2021-05-27
